proprietary/assets/icons/op-kantoor/documenten-met-elkaar-verbonden.svg

<svg height="64" viewBox="0 0 64 64" width="64" xmlns="http://www.w3.org/2000/svg"><path d="m0 0h64v64h-64z" fill="none"/><path d="m42 27.95v-16.115c0-.2786-.1107-.5458-.3076-.7426l-7.7849-7.7849c-.1967-.1968-.4639-.3075-.7425-.3075h-11.115c-.5798 0-1.05.4701-1.05 1.05v23.9c0 .5798.4702 1.05 1.05 1.05h18.9c.5776 0 1.05-.4727 1.05-1.05zm-3-1.95h-15v-20h9v5c0 .5523.4477 1 1 1h5z"/><path d="m13.9076 34.3076c-.1969-.1969-.464-.3076-.7426-.3076h-11.115c-.5798 0-1.05.4701-1.05 1.05v23.9c0 .5798.4702 1.05 1.05 1.05h18.9c.5775 0 1.05-.4727 1.05-1.05v-16.115c0-.2786-.1107-.5458-.3076-.7426zm5.0924 22.6924h-15v-20h9v5c0 .5523.4477 1 1 1h5z"/><path d="m61.6924 42.0924-7.7848-7.7849c-.1969-.1968-.464-.3075-.7426-.3075h-11.115c-.5798 0-1.05.4701-1.05 1.05v23.9c0 .5798.4702 1.05 1.05 1.05h18.9c.5775 0 1.05-.4727 1.05-1.05v-16.115c0-.2786-.1107-.5458-.3076-.7426zm-2.6924 14.9076h-15v-20h9v5c0 .5523.4477 1 1 1h5z"/><path d="m33 31h-3v9.1685l-6 3.7501v3.5378l7.5-4.6874 7.5 4.6874v-3.5378l-6-3.7501z"/></svg>

<?xml version="1.0" encoding="utf-8"?>
<!-- Generator: Adobe Illustrator 19.1.0, SVG Export Plug-In . SVG Version: 6.00 Build 0)  -->
<svg version="1.2" baseProfile="tiny" xmlns="http://www.w3.org/2000/svg" xmlns:xlink="http://www.w3.org/1999/xlink" x="0px"
	 y="0px" width="64px" height="64px" viewBox="0 0 64 64" xml:space="preserve">
<g id="_x36_4px_Box">
	<rect fill="none" width="64" height="64"/>
</g>
<g id="Icon">
	<g>
		<path d="M42,27.95V11.835c0-0.2786-0.1107-0.5458-0.3076-0.7426l-7.7849-7.7849C33.7108,3.1107,33.4436,3,33.165,3H22.05
			C21.4702,3,21,3.4701,21,4.05v23.9c0,0.5798,0.4702,1.05,1.05,1.05h18.9C41.5276,29,42,28.5273,42,27.95z M39,26H24V6h9v5
			c0,0.5523,0.4477,1,1,1h5V26z"/>
		<path d="M13.9076,34.3076C13.7107,34.1107,13.4436,34,13.165,34H2.05C1.4702,34,1,34.4701,1,35.05v23.9
			C1,59.5298,1.4702,60,2.05,60h18.9c0.5775,0,1.05-0.4727,1.05-1.05V42.835c0-0.2786-0.1107-0.5458-0.3076-0.7426L13.9076,34.3076z
			 M19,57H4V37h9v5c0,0.5523,0.4477,1,1,1h5V57z"/>
		<path d="M61.6924,42.0924l-7.7848-7.7849C53.7107,34.1107,53.4436,34,53.165,34H42.05C41.4702,34,41,34.4701,41,35.05v23.9
			c0,0.5798,0.4702,1.05,1.05,1.05h18.9c0.5775,0,1.05-0.4727,1.05-1.05V42.835C62,42.5564,61.8893,42.2892,61.6924,42.0924z M59,57
			H44V37h9v5c0,0.5523,0.4477,1,1,1h5V57z"/>
		<polygon points="33,31 30,31 30,40.1685 24,43.9186 24,47.4564 31.5,42.769 39,47.4564 39,43.9186 33,40.1685 		"/>
	</g>
</g>
</svg>
